32x32/apps/lovers-in-a-dangerous-spacetime.svg

<svg height="32" width="32" xmlns="http://www.w3.org/2000/svg"><path d="m8.999 3.003c-5.113.15-9.737 5.388-7.355 12.558 1.095 3.076 3.151 5.421 7.905 9.015 3.118 2.357 6.951 6.424 6.951 6.424s3.833-4.067 6.95-6.424c4.755-3.594 6.811-5.94 7.906-9.015 3.63-10.926-9.007-17.364-14.856-8.151-2.01-3.167-4.823-4.485-7.501-4.407z" opacity=".2"/><path d="m8.999 2.003c-5.113.15-9.737 5.388-7.355 12.558 1.095 3.076 3.151 5.421 7.905 9.015 3.118 2.357 6.951 6.424 6.951 6.424s3.833-4.067 6.95-6.424c4.755-3.594 6.811-5.94 7.906-9.015 3.63-10.926-9.007-17.364-14.856-8.151-2.01-3.167-4.823-4.485-7.501-4.407z" fill="#e32b90"/><path d="m17.69 7.99a.7.7 0 0 0 -.69.71v9.3c0 1.215.553 2.29 1.408 3.023l-2.008 2.977h2.1l1.455-2.156c.335.09.681.156 1.045.156.547 0 1.066-.112 1.541-.31l1.559 2.31h2.1l-2.241-3.32h-.008a3.972 3.972 0 0 0 .899-1.65l2.73-1.303a.734.7 0 0 0 .041-1.233l-2.621-1.45v-.044h-6.6v-6.3a.7.7 0 0 0 -.71-.71zm7.31 8.674.707.39-.707.337z" opacity=".2"/><path d="m13.6 9.697a.65.65 0 0 0 -.157 1.27l2.768.922-1.391 1.111h-10.11a.7.7 0 1 0 0 1.4h3.967c-.797 1.26-1.539 2.533-1.677 3.965v1.977c0 .677-.018.687.662.642h.908l-3.37 3.016h2.1l3.37-3.016h2.33v3.016h2v-3.016h.063c.942 0 .983.05.916-1.002v-3.294l-.522-2.532 2.5-1.998a.65.65 0 0 0 -.201-1.127l-3.9-1.299a.65.65 0 0 0 -.192-.035.65.65 0 0 0 -.064 0z" opacity=".2"/><circle cx="12.2" cy="9.2" fill="#f4f4f7" opacity=".6" r="4.2"/><path d="m24.964 14.024-.738 1.212 1.48.819-1.719.819.657 1.252 2.937-1.4a.734.7 0 0 0 .04-1.232z" fill="#fdd557"/><path d="m21 6a.667.667 0 0 0 -.667.667.667.667 0 0 0 .334.575v.775a4 4 0 0 0 -3.667 3.983v2h8v-2a4 4 0 0 0 -3.667-3.983v-.774a.667.667 0 0 0 .334-.576.667.667 0 0 0 -.667-.667z" fill="#f4f4f7" opacity=".6"/><path d="m18.333 14v-2a2.667 2.667 0 0 1 5.334 0v2z" fill="#2b385f"/><ellipse cx="20.603" cy="11.873" fill="#51c7d0" rx=".467" ry=".665"/><ellipse cx="22.651" cy="11.873" fill="#51c7d0" rx=".467" ry=".665"/><path d="m18.64 19.68h2.1l-2.24 3.32h-2.1zm5.32 0h-2.1l2.24 3.32h2.1z" fill="#fdd557"/><path d="m4.71 12a.7.7 0 1 0 0 1.4h5.39a.7.7 0 1 0 0-1.4zm4.2 7.68h2.1l-3.71 3.32h-2.1zm4.09-.18h2v3.5h-2z" fill="#6dba7c"/><path d="m14.9 12v-2.537a2.45 2.45 0 0 0 -4.9 0v2.537z" fill="#f4f4f7"/><path d="m13.665 8.696a.65.65 0 0 0 -.221 1.27l2.767.922-2.318 1.854a.65.65 0 1 0 .813 1.016l3.25-2.6a.65.65 0 0 0 -.2-1.126l-3.9-1.3a.65.65 0 0 0 -.191-.036z" fill="#6dba7c"/><ellipse cx="-12.915" cy="10.615" fill="#17191e" rx=".429" ry=".611" transform="scale(-1 1)"/><ellipse cx="-11.033" cy="10.615" fill="#17191e" rx=".429" ry=".611" transform="scale(-1 1)"/><path d="m17.69 6.99a.7.7 0 0 0 -.69.71v7a.7.7 0 1 0 1.4 0v-7a.7.7 0 0 0 -.71-.71z" fill="#fdd557"/><path d="m17 14v3a4 4 0 1 0 8 0v-3z" fill="#fdd557"/><path d="m18.333 15.367h5.334v1.633a2.647 2.647 0 0 1 -2.667 2.667 2.647 2.647 0 0 1 -2.667-2.667z" fill="#ed9433"/><path d="m9.556 12h5.663l.76 3.687v3.295c.067 1.051.025 1.003-.917 1.003h-7.4c-.68.044-.662.034-.662-.643v-1.978c.188-1.962 1.512-3.626 2.556-5.364z" fill="#6dba7c"/><path d="m10.314 13.452h3.791l.493 2.391v2.69h-6.218v-1.043c.12-1.182.99-2.515 1.933-4.04z" fill="#018c58"/><path d="m8.998 2.004c-4.29.126-8.218 3.84-7.969 9.266.246-4.877 3.947-8.15 7.969-8.267 2.678-.079 5.491 1.24 7.502 4.406 5.034-7.93 15.087-4.26 15.479 3.881.424-8.83-10.243-13.128-15.479-4.88-2.01-3.168-4.824-4.486-7.502-4.407z" fill="#f4f4f7" opacity=".2"/></svg>

<svg xmlns="http://www.w3.org/2000/svg" width="32" height="32" version="1"><path style="opacity:.2" d="M8.999 3.003c-5.113.15-9.737 5.388-7.355 12.558 1.095 3.076 3.151 5.421 7.905 9.015C12.667 26.933 16.5 31 16.5 31s3.833-4.067 6.95-6.424c4.755-3.594 6.811-5.94 7.906-9.015C34.986 4.635 22.349-1.803 16.5 7.41c-2.01-3.167-4.823-4.485-7.501-4.407z"/><path style="fill:#e32b90" d="M8.999 2.003c-5.113.15-9.737 5.388-7.355 12.558 1.095 3.076 3.151 5.421 7.905 9.015C12.667 25.933 16.5 30 16.5 30s3.833-4.067 6.95-6.424c4.755-3.594 6.811-5.94 7.906-9.015C34.986 3.635 22.349-2.803 16.5 6.41c-2.01-3.167-4.823-4.485-7.501-4.407z"/><path style="opacity:.2" d="M17.69 7.99a.7.7 0 0 0-.69.71V18c0 1.215.553 2.29 1.408 3.023L16.4 24h2.1l1.455-2.156c.335.09.681.156 1.045.156.547 0 1.066-.112 1.541-.31L24.1 24h2.1l-2.241-3.32h-.008a3.972 3.972 0 0 0 .899-1.65l2.73-1.303a.734.7 0 0 0 .041-1.233L25 15.044V15h-6.6V8.7a.7.7 0 0 0-.71-.71zM25 16.664l.707.39-.707.337z"/><path style="opacity:.2" d="M13.6 9.697a.65.65 0 0 0-.157 1.27l2.768.922L14.82 13H4.71a.7.7 0 1 0 0 1.4h3.967C7.88 15.66 7.138 16.933 7 18.365v1.977c0 .677-.018.687.662.642h.908L5.2 24h2.1l3.37-3.016H13V24h2v-3.016h.063c.942 0 .983.05.916-1.002v-3.294l-.522-2.532 2.5-1.998a.65.65 0 0 0-.201-1.127l-3.9-1.299a.65.65 0 0 0-.192-.035.65.65 0 0 0-.064 0z"/><circle style="opacity:.6;fill:#f4f4f7" cx="12.2" cy="9.2" r="4.2"/><path style="fill:#fdd557" d="m24.964 14.024-.738 1.212 1.48.819-1.719.819.657 1.252 2.937-1.4a.734.7 0 0 0 .04-1.232z"/><path style="opacity:.6;fill:#f4f4f7" d="M21 6a.667.667 0 0 0-.667.667.667.667 0 0 0 .334.575v.775A4 4 0 0 0 17 12v2h8v-2a4 4 0 0 0-3.667-3.983v-.774a.667.667 0 0 0 .334-.576A.667.667 0 0 0 21 6z"/><path style="fill:#2b385f" d="M18.333 14v-2a2.667 2.667 0 0 1 5.334 0v2z"/><ellipse style="fill:#51c7d0" cx="20.603" cy="11.873" rx=".467" ry=".665"/><ellipse style="fill:#51c7d0" cx="22.651" cy="11.873" rx=".467" ry=".665"/><path style="fill:#fdd557" d="M18.64 19.68h2.1L18.5 23h-2.1zM23.96 19.68h-2.1L24.1 23h2.1z"/><path style="fill:#6dba7c" d="M4.71 12a.7.7 0 1 0 0 1.4h5.39a.7.7 0 1 0 0-1.4zM8.91 19.68h2.1L7.3 23H5.2zM13 19.5h2V23h-2z"/><path style="fill:#f4f4f7" d="M14.9 12V9.463a2.45 2.45 0 0 0-4.9 0V12z"/><path style="fill:#6dba7c" d="M13.665 8.696a.65.65 0 0 0-.221 1.27l2.767.922-2.318 1.854a.65.65 0 1 0 .813 1.016l3.25-2.6a.65.65 0 0 0-.2-1.126l-3.9-1.3a.65.65 0 0 0-.191-.036z"/><ellipse style="fill:#17191e" cx="-12.915" cy="10.615" rx=".429" ry=".611" transform="scale(-1 1)"/><ellipse style="fill:#17191e" cx="-11.033" cy="10.615" rx=".429" ry=".611" transform="scale(-1 1)"/><path style="fill:#fdd557" d="M17.69 6.99a.7.7 0 0 0-.69.71v7a.7.7 0 1 0 1.4 0v-7a.7.7 0 0 0-.71-.71z"/><path style="fill:#fdd557" d="M17 14v3a4 4 0 1 0 8 0v-3z"/><path style="fill:#ed9433" d="M18.333 15.367h5.334V17A2.647 2.647 0 0 1 21 19.667 2.647 2.647 0 0 1 18.333 17z"/><path style="fill:#6dba7c" d="M9.556 12h5.663l.76 3.687v3.295c.067 1.051.025 1.003-.917 1.003h-7.4c-.68.044-.662.034-.662-.643v-1.978c.188-1.962 1.512-3.626 2.556-5.364z"/><path style="fill:#018c58" d="M10.314 13.452h3.791l.493 2.391v2.69H8.38V17.49c.12-1.182.99-2.515 1.933-4.04z"/><path style="fill:#f4f4f7;opacity:.2" d="M8.998 2.004C4.708 2.13.78 5.844 1.029 11.27c.246-4.877 3.947-8.15 7.969-8.267 2.678-.079 5.491 1.24 7.502 4.406 5.034-7.93 15.087-4.26 15.479 3.881.424-8.83-10.243-13.128-15.479-4.88-2.01-3.168-4.824-4.486-7.502-4.407z"/></svg>
